img/ico/home-advantage-manufacture-icon.svg

<svg width="60" height="60" viewBox="0 0 60 60" fill="none" xmlns="http://www.w3.org/2000/svg">
<circle cx="30" cy="30" r="30" fill="#FF5147"/>
<path d="M19.2738 15.875C18.3848 15.875 17.6667 16.7129 17.6667 17.75V31.8125V34.625V39.3125C17.6667 40.8652 18.7465 42.125 20.0774 42.125H40.9702C42.3011 42.125 43.3809 40.8652 43.3809 39.3125V31.8125V22.918C43.3809 21.8516 42.4066 21.1777 41.603 21.6816L33.7381 26.6211V22.918C33.7381 21.8516 32.7638 21.1777 31.9602 21.6816L24.0952 26.6211V17.75C24.0952 16.7129 23.377 15.875 22.4881 15.875H19.2738Z" fill="white"/>
</svg>

<svg width="60" height="60" viewBox="0 0 60 60" fill="none" xmlns="http://www.w3.org/2000/svg" class="svg-icon">
    <circle cx="30" cy="30" r="30" fill="currentColor" />
    <path
        d="M19.274 15.875c-.89 0-1.607.838-1.607 1.875v21.563c0 1.552 1.08 2.812 2.41 2.812H40.97c1.331 0 2.41-1.26 2.41-2.812V22.918c0-1.066-.973-1.74-1.777-1.236l-7.865 4.94v-3.704c0-1.066-.974-1.74-1.778-1.236l-7.865 4.94V17.75c0-1.037-.718-1.875-1.607-1.875z"
        fill="#fff" />
</svg>
